X: 960
T: Halka-i Mecliste Mest
C: Ahmet Avni Konuk
O: Turkey
F: http://compmusic.upf.edu/node/140
N: sevkaver--kupe--aksaksemai--halka-i--ahmet_avni_konuk
N: makam= sevkaver
N: form= kupe
N: usul= aksaksemai = 10/8
M: 10/8
L: 1/16
K: C _1/4B _1/4e  
Q: 1/4=102
%%MIDI tuningsystem comma53
f2f2 g2g4g_b agg4z2  | c'2_b2 a2ba gag2 f2gf _2/4e^3/4de2  | 
w:  Hal *  ka  i  *  *  *  *  mec  |  lis *  te  mest_ *  *  *  *  *  et  | 
d=ed2 e2f4f2 edg^3/4f _3/4edc2  | \
w:  mek  *  *  i çün  *  *  *  ol   | 
d=ef2 edd2 dc_2/4Bc d/e/d/c/c4z2  | 
w:  dil *  *  be *  ri    | 
g4 a2ag f=ed2 a2a2 g2f2  | =e2d2 e2dc c_2/4BBA {c}BAA4z2  | 
w:  Fasl_ ı  Şevk_ *  *  *  *  *  â  |  ver *  le  sun  *  *  *  *  *  *  *  *  sâ  | 
A2_B2 B2B2 A2A2 G2G2 AGF2  | G_BA2 G2G2 GF=EF GEF4z2  | 
w:  kî  *  mey_ i  *  *  *  şevk_  |  â *  *  ve ri    | 
|


